remix/Device/bluetooth-fill.svg

<svg viewBox="0 0 24 24" fill="currentColor" xmlns="http://www.w3.org/2000/svg"><path d="M14.3116 12L18.6548 16.3431L12.9979 22H10.9979V15.3137L6.63394 19.6777L5.21973 18.2635L10.9979 12.4853V11.5147L5.21973 5.73654L6.63394 4.32233L10.9979 8.68629V2H12.9979L18.6548 7.65685L14.3116 12ZM12.9979 13.5147V19.1716L15.8263 16.3431L12.9979 13.5147ZM12.9979 10.4853L15.8263 7.65685L12.9979 4.82843V10.4853Z"/></svg>

<svg viewBox="0 0 24 24" xmlns="http://www.w3.org/2000/svg"><path fill="none" d="M0 0h24v24H0Z"/><path d="M14.341 12.03l4.34 4.34 -5.66 5.65h-2V15.33l-4.37 4.36 -1.415-1.42L11 12.49v-.97L5.22 5.74 6.64 4.32 11 8.68V2h2l5.65 5.65 -4.35 4.34Zm-1.32 1.51v5.65l2.82-2.83 -2.83-2.83Zm0-3.03l2.82-2.83 -2.83-2.83v5.657Z"/></svg>
